X:1
T:College Hornpipe / Sailor's Hornpipe
M:C|
K:A
L:1/8
ag | "A"a2 A2 A2 ed | ce a2 ac'ba | "B"b2 B2 B2 ba | "E"gf e2 e2 fg | 
"A"agfe "(F#m)"fedc | "D"dcBA "(Bm)"BAGF "E7"EAGB AcBd | "A"c2 A2 A2 :|]|: ed |
"A"ceae "(C#)"ceae | "D"f2 d2 "(C#)"d2 fe | "B7"^dfbf "(D#)"dfbf | "E"g2 e2 "(G#)"e2 fg | 
"A"agfe "(F#m)"fedc | "D"dcBA "(Bm)"BAGF | "E7"EAGB AcBd | "A"c2 A2 A2 :|] 

